anvil/run/anvil_run.cube
TITLE "ANVIL forge grade"
LUT_3D_SIZE 5
DOMAIN_MIN 0.0 0.0 0.0
DOMAIN_MAX 1.0 1.0 1.0
0.096494 0.080081 0.052439
0.324957 0.105138 0.081513
0.580561 0.130725 0.111113
0.826978 0.157001 0.140956
0.961000 0.184014 0.170965
0.113613 0.301933 0.084062
0.320312 0.302453 0.086486
0.582696 0.220880 0.000000
0.827672 0.350449 0.131049
0.961000 0.391577 0.175507
0.132256 0.550079 0.115433
0.343081 0.549852 0.116518
0.577996 0.552497 0.120158
0.831847 0.455606 0.000000
0.961000 0.371182 0.000000
0.153591 0.792119 0.145744
0.369679 0.792179 0.146515
0.605318 0.792219 0.147481
0.828986 0.794750 0.183239
0.961000 0.700290 0.000000
0.229862 0.961000 0.221111
0.487214 0.961000 0.292410
0.721982 0.961000 0.384700
0.894500 0.961000 0.461962
0.961000 0.961000 0.508007
0.223080 0.270135 0.272457
0.324472 0.104904 0.270802
0.580370 0.130535 0.302423
0.826997 0.156855 0.334284
0.961000 0.183912 0.366311
0.114852 0.301753 0.271447
0.320105 0.298248 0.263071
0.578784 0.331336 0.305136
0.827523 0.361081 0.336837
0.961000 0.391581 0.368726
0.131803 0.550019 0.303512
0.342858 0.549806 0.303960
0.578074 0.552299 0.304802
0.831919 0.455335 0.109922
0.961000 0.591811 0.334818
0.153291 0.792152 0.334166
0.369614 0.792226 0.334294
0.606328 0.791836 0.336572
0.829164 0.794811 0.369071
0.961000 0.700467 0.043962
0.249960 0.961000 0.406169
0.506412 0.961000 0.460617
0.735216 0.961000 0.529356
0.902337 0.961000 0.584366
0.961000 0.961000 0.614403
0.360495 0.479395 0.513958
0.335936 0.134892 0.505174
0.580134 0.130328 0.510853
0.826980 0.156696 0.543786
0.961000 0.183802 0.576139
0.356660 0.512664 0.509418
0.442865 0.494746 0.508034
0.578684 0.331231 0.511133
0.827644 0.361028 0.543983
0.961000 0.391579 0.576262
0.132236 0.549946 0.508138
0.342610 0.549750 0.507991
0.578383 0.541640 0.481676
0.829317 0.584251 0.543457
0.961000 0.615949 0.575607
0.152978 0.792179 0.538397
0.369539 0.792268 0.537810
0.608678 0.791166 0.540169
0.829805 0.791514 0.525801
0.961000 0.701694 0.318129
0.274381 0.961000 0.593997
0.528050 0.961000 0.627635
0.749362 0.961000 0.672005
0.910494 0.961000 0.707519
0.961000 0.961000 0.712908
0.509535 0.693424 0.750307
0.409003 0.523994 0.745747
0.602012 0.149860 0.737863
0.826999 0.156551 0.745558
0.961000 0.183706 0.774754
0.504214 0.722140 0.743698
0.592465 0.705033 0.741737
0.599412 0.351605 0.734928
0.827795 0.360985 0.743943
0.961000 0.391590 0.773067
0.499079 0.740084 0.726278
0.591715 0.734505 0.735083
0.673240 0.716092 0.733018
0.829610 0.584313 0.741588
0.961000 0.616739 0.769850
0.152687 0.792215 0.736662
0.369484 0.792318 0.735545
0.612419 0.790624 0.732933
0.830499 0.780177 0.694592
0.961000 0.841022 0.782738
0.299965 0.961000 0.760954
0.549284 0.961000 0.773816
0.762438 0.961000 0.797623
0.917701 0.961000 0.820434
0.961000 0.961000 0.784662
0.716365 0.877318 0.916131
0.686208 0.840986 0.922588
0.610341 0.187086 0.947555
0.843807 0.173371 0.946216
0.961000 0.183632 0.955630
0.724915 0.897103 0.908269
0.786385 0.887204 0.906274
0.590963 0.653607 0.946411
0.843069 0.377759 0.941427
0.961000 0.391617 0.952501
0.734475 0.916199 0.902412
0.797303 0.908034 0.901283
0.848294 0.898013 0.900072
0.843389 0.599624 0.935853
0.961000 0.618358 0.943437
0.678598 0.913714 0.883659
0.798685 0.917654 0.889376
0.861832 0.920447 0.898254
0.900927 0.907368 0.896488
0.961000 0.847063 0.901763
0.324854 0.961000 0.902157
0.568767 0.961000 0.896533
0.773633 0.961000 0.905249
0.923975 0.961000 0.922720
0.961000 0.961000 0.899140
