anvil/run/anvil_run.cube
TITLE "ANVIL forge grade"
LUT_3D_SIZE 9
DOMAIN_MIN 0.0 0.0 0.0
DOMAIN_MAX 1.0 1.0 1.0
0.096494 0.080081 0.052439
0.207197 0.092546 0.066906
0.324957 0.105138 0.081513
0.449837 0.117861 0.096254
0.580561 0.130725 0.111113
0.706995 0.143770 0.126017
0.826978 0.157001 0.140956
0.940449 0.170416 0.155936
0.961000 0.184014 0.170965
0.104903 0.187665 0.068254
0.204129 0.187764 0.069462
0.324737 0.149332 0.000000
0.448414 0.208860 0.090248
0.579626 0.228452 0.113583
0.706611 0.242343 0.128452
0.827084 0.256422 0.143359
0.940983 0.270688 0.158310
0.961000 0.285138 0.173312
0.113613 0.301933 0.084062
0.213643 0.301653 0.084748
0.320312 0.302453 0.086486
0.448891 0.259428 0.000000
0.582696 0.220880 0.000000
0.709504 0.248391 0.000000
0.827672 0.350449 0.131049
0.941714 0.376258 0.160541
0.961000 0.391577 0.175507
0.122699 0.422953 0.099810
0.223990 0.422756 0.100426
0.330913 0.422554 0.101054
0.445401 0.424267 0.103422
0.580399 0.375885 0.000000
0.709972 0.335044 0.000000
0.832810 0.294835 0.000000
0.947641 0.295400 0.000000
0.961000 0.404203 0.042750
0.132256 0.550079 0.115433
0.234825 0.549967 0.115972
0.343081 0.549852 0.116518
0.457071 0.549736 0.117067
0.577996 0.552497 0.120158
0.708601 0.499794 0.000000
0.831847 0.455606 0.000000
0.948211 0.413074 0.000000
0.961000 0.371182 0.000000
0.142550 0.674098 0.130747
0.246404 0.674060 0.131209
0.356002 0.674020 0.131672
0.471389 0.673982 0.132134
0.589969 0.673951 0.132580
0.707506 0.677677 0.136469
0.831381 0.631984 0.000000
0.948184 0.580378 0.000000
0.961000 0.537300 0.000000
0.153591 0.792119 0.145744
0.258736 0.792148 0.146131
0.369679 0.792179 0.146515
0.486469 0.792214 0.146891
0.605318 0.792219 0.147481
0.719479 0.791318 0.155983
0.828986 0.794750 0.183239
0.944027 0.758616 0.000000
0.961000 0.700290 0.000000
0.165309 0.904076 0.160475
0.273767 0.903346 0.162980
0.394465 0.899695 0.175655
0.522097 0.894591 0.199739
0.645066 0.890084 0.233419
0.753776 0.887704 0.272532
0.847488 0.887965 0.314009
0.931811 0.895680 0.369220
0.961000 0.870238 0.165907
0.229862 0.961000 0.221111
0.358426 0.961000 0.252878
0.487214 0.961000 0.292410
0.611605 0.961000 0.338152
0.721982 0.961000 0.384700
0.815247 0.961000 0.426959
0.894500 0.961000 0.461962
0.961000 0.961000 0.487355
0.961000 0.961000 0.508007
0.158466 0.172714 0.159714
0.206893 0.092422 0.158857
0.324721 0.105023 0.173978
0.449676 0.117757 0.189231
0.580471 0.130632 0.204603
0.706961 0.143688 0.220018
0.826993 0.156930 0.235469
0.940506 0.170356 0.250961
0.961000 0.183965 0.266501
0.105997 0.187549 0.159581
0.203930 0.185974 0.156521
0.322361 0.201094 0.176008
0.448062 0.214664 0.191232
0.579566 0.228382 0.206568
0.706607 0.242284 0.221948
0.827129 0.256375 0.237366
0.941071 0.270653 0.252828
0.961000 0.285115 0.268340
0.113315 0.301848 0.175763
0.213398 0.301572 0.176299
0.320136 0.302383 0.177926
0.448657 0.259262 0.085249
0.579185 0.319813 0.191591
0.706428 0.346149 0.223753
0.827453 0.361105 0.239128
0.941834 0.376249 0.254550
0.961000 0.391580 0.270026
0.122437 0.422896 0.191634
0.223783 0.422703 0.192099
0.330765 0.422503 0.192575
0.445333 0.424236 0.194886
0.580293 0.375744 0.051164
0.709914 0.334889 0.015678
0.830893 0.359461 0.074487
0.943209 0.470557 0.233334
0.961000 0.503411 0.271523
0.132033 0.550050 0.207373
0.234657 0.549942 0.207760
0.342973 0.549830 0.208153
0.457027 0.549718 0.208549
0.578034 0.552503 0.211624
0.708636 0.498655 0.017033
0.831891 0.455473 0.000000
0.948286 0.412925 0.000000
0.961000 0.410585 0.000000
0.142366 0.674093 0.222798
0.246275 0.674058 0.223107
0.355933 0.674022 0.223417
0.471386 0.673987 0.223725
0.590023 0.673961 0.224017
0.707632 0.677715 0.227937
0.831696 0.622773 0.000000
0.948320 0.580269 0.000000
0.961000 0.537172 0.000000
0.153443 0.792136 0.237902
0.258644 0.792169 0.238136
0.369649 0.792203 0.238365
0.486504 0.792241 0.238587
0.605684 0.792081 0.239882
0.720028 0.791021 0.249441
0.829009 0.794758 0.275836
0.945277 0.746890 0.000000
0.961000 0.700302 0.000000
0.165196 0.904112 0.252737
0.275905 0.902577 0.256640
0.398331 0.898402 0.269477
0.526577 0.893292 0.291891
0.649234 0.889209 0.322323
0.757098 0.887513 0.357171
0.849784 0.888568 0.393805
0.933317 0.897208 0.442854
0.961000 0.861148 0.193949
0.239360 0.961000 0.312827
0.368237 0.961000 0.341265
0.496477 0.961000 0.376280
0.619635 0.961000 0.416477
0.728449 0.961000 0.457041
0.820227 0.961000 0.493444
0.898347 0.961000 0.523010
0.961000 0.961000 0.543597
0.961000 0.961000 0.561125
0.223080 0.270135 0.272457
0.211572 0.107853 0.267997
0.324472 0.104904 0.270802
0.449502 0.117649 0.286554
0.580370 0.130535 0.302423
0.706915 0.143602 0.318336
0.826997 0.156855 0.334284
0.940554 0.170293 0.350274
0.961000 0.183912 0.366311
0.221847 0.286270 0.271653
0.261975 0.278492 0.271401
0.322142 0.200997 0.272282
0.447920 0.214579 0.288004
0.579495 0.228309 0.303837
0.706593 0.242223 0.319714
0.827166 0.256325 0.335628
0.941151 0.270615 0.351586
0.961000 0.285088 0.367596
0.114852 0.301753 0.271447
0.213143 0.301486 0.272129
0.320105 0.298248 0.263071
0.446488 0.316747 0.289350
0.578784 0.331336 0.305136
0.706447 0.346113 0.320966
0.827523 0.361081 0.336837
0.941948 0.376238 0.352755
0.961000 0.391581 0.368726
0.122166 0.422836 0.287704
0.223566 0.422646 0.288003
0.330608 0.422450 0.288313
0.445293 0.423462 0.283626
0.580168 0.375597 0.185691
0.707064 0.434194 0.291111
0.828118 0.471173 0.337876
0.942996 0.487213 0.353743
0.961000 0.503441 0.369667
0.131803 0.550019 0.303512
0.234482 0.549914 0.303733
0.342858 0.549806 0.303960
0.456978 0.549697 0.304189
0.578074 0.552299 0.304802
0.708626 0.498534 0.147798
0.831919 0.455335 0.109922
0.946887 0.474735 0.162444
0.961000 0.591811 0.334818
0.142175 0.674086 0.319001
0.246141 0.674054 0.319143
0.355860 0.674022 0.319286
0.471379 0.673991 0.319427
0.590072 0.673968 0.319552
0.707759 0.677642 0.322029
0.831797 0.622447 0.109776
0.948445 0.580156 0.072481
0.961000 0.537039 0.035824
0.153291 0.792152 0.334166
0.258548 0.792188 0.334232
0.369614 0.792226 0.334294
0.486537 0.792268 0.334347
0.606328 0.791836 0.336572
0.720767 0.790747 0.346138
0.829164 0.794811 0.369071
0.945092 0.740360 0.085866
0.961000 0.700467 0.043962
0.165460 0.904015 0.349265
0.278971 0.901555 0.354106
0.402988 0.896996 0.366109
0.531700 0.892014 0.385950
0.653906 0.888472 0.412384
0.760817 0.887546 0.442416
0.852410 0.889450 0.473840
0.935070 0.898879 0.514678
0.961000 0.852607 0.239391
0.249960 0.961000 0.406169
0.378938 0.961000 0.430637
0.506412 0.961000 0.460617
0.628132 0.961000 0.494918
0.735216 0.961000 0.529356
0.825399 0.961000 0.559973
0.902337 0.961000 0.584366
0.961000 0.961000 0.600585
0.961000 0.961000 0.614403
0.290401 0.372358 0.390599
0.246992 0.293295 0.388130
0.334908 0.114723 0.383971
0.449317 0.117536 0.388208
0.580257 0.130433 0.404561
0.706859 0.143512 0.420956
0.826991 0.156777 0.437388
0.940593 0.170226 0.453860
0.961000 0.183857 0.470381
0.288834 0.388733 0.389079
0.330243 0.380433 0.388613
0.332317 0.211059 0.384467
0.447767 0.214490 0.389061
0.579415 0.228232 0.405376
0.706570 0.242158 0.421736
0.827194 0.256273 0.438132
0.941223 0.270574 0.454573
0.961000 0.285059 0.471065
0.287425 0.400158 0.382300
0.330323 0.397267 0.387106
0.370948 0.388409 0.386623
0.446369 0.316683 0.389809
0.578738 0.331285 0.406077
0.706459 0.346075 0.422389
0.827585 0.361055 0.438741
0.942056 0.376224 0.455141
0.961000 0.391580 0.471593
0.123451 0.422767 0.387750
0.223341 0.422586 0.388125
0.330444 0.422394 0.388256
0.445402 0.416951 0.371616
0.578273 0.439643 0.406627
0.706574 0.455313 0.422882
0.828217 0.471175 0.439180
0.943141 0.487228 0.455527
0.961000 0.503469 0.471932
0.131566 0.549985 0.403835
0.234300 0.549883 0.403876
0.342737 0.549779 0.403923
0.456923 0.549674 0.403972
0.578209 0.549087 0.381961
0.708603 0.498407 0.287903
0.829840 0.550451 0.387058
0.944584 0.600054 0.455659
0.961000 0.615857 0.471996
0.141980 0.674077 0.419342
0.246001 0.674049 0.419304
0.355782 0.674020 0.419266
0.471367 0.673994 0.419225
0.590119 0.673975 0.419169
0.707919 0.676248 0.407648
0.831883 0.622348 0.246000
0.948561 0.580039 0.205802
0.961000 0.591319 0.248905
0.153136 0.792166 0.434521
0.258449 0.792205 0.434406
0.369577 0.792247 0.434286
0.486568 0.792293 0.434159
0.607307 0.791516 0.437031
0.721743 0.790537 0.445518
0.829462 0.794211 0.454451
0.943125 0.740563 0.221822
0.961000 0.700890 0.177265
0.166869 0.903544 0.450143
0.283054 0.900308 0.454830
0.408500 0.895515 0.464981
0.537510 0.890801 0.481345
0.659113 0.887915 0.503068
0.764957 0.887842 0.527788
0.855386 0.890645 0.553716
0.936843 0.900120 0.580003
0.961000 0.850603 0.331004
0.261696 0.961000 0.500571
0.390535 0.961000 0.520464
0.517003 0.961000 0.544959
0.637062 0.961000 0.573108
0.742240 0.961000 0.601405
0.830715 0.961000 0.626451
0.906423 0.961000 0.646094
0.961000 0.961000 0.658560
0.961000 0.961000 0.665665
0.360495 0.479395 0.513958
0.357713 0.456497 0.512803
0.335936 0.134892 0.505174
0.459056 0.126204 0.505102
0.580134 0.130328 0.510853
0.706795 0.143419 0.527394
0.826980 0.156696 0.543786
0.940628 0.170158 0.560032
0.961000 0.183802 0.576139
0.358575 0.495962 0.511691
0.401255 0.487124 0.511001
0.338249 0.372092 0.507871
0.457091 0.223208 0.504781
0.579326 0.228151 0.511053
0.706540 0.242090 0.527578
0.827216 0.256218 0.543953
0.941293 0.270532 0.560185
0.961000 0.285030 0.576279
0.356660 0.512664 0.509418
0.401047 0.504167 0.508740
0.442865 0.494746 0.508034
0.455283 0.325409 0.504350
0.578684 0.331231 0.511133
0.706464 0.346034 0.527632
0.827644 0.361028 0.543983
0.942161 0.376210 0.560191
0.961000 0.391579 0.576262
0.339368 0.515711 0.495052
0.399456 0.514812 0.500226
0.444818 0.512352 0.505780
0.485330 0.502258 0.505056
0.578257 0.439617 0.511060
0.706617 0.455300 0.527523
0.828313 0.471177 0.543839
0.943283 0.487244 0.560014
0.961000 0.503498 0.576053
0.132236 0.549946 0.508138
0.234112 0.549851 0.508133
0.342610 0.549750 0.507991
0.456863 0.549649 0.507851
0.578383 0.541640 0.481676
0.707078 0.568389 0.527195
0.829317 0.584251 0.543457
0.944764 0.600092 0.559579
0.961000 0.615949 0.575607
0.141780 0.674067 0.523573
0.245858 0.674042 0.523353
0.355700 0.674018 0.523133
0.471352 0.673995 0.522909
0.590162 0.673980 0.522669
0.708177 0.670044 0.475682
0.831962 0.622247 0.391400
0.947110 0.660844 0.478497
0.961000 0.729910 0.591692
0.152978 0.792179 0.538397
0.258349 0.792222 0.538106
0.369539 0.792268 0.537810
0.486890 0.792216 0.537652
0.608678 0.791166 0.540169
0.723003 0.790438 0.546501
0.829805 0.791514 0.525801
0.940835 0.741100 0.364446
0.961000 0.701694 0.318129
0.169523 0.902731 0.553770
0.288186 0.898886 0.557211
0.414864 0.894018 0.564541
0.543984 0.889711 0.576617
0.664828 0.887589 0.593037
0.769495 0.888437 0.612103
0.858702 0.892169 0.632414
0.938305 0.900116 0.636162
0.961000 0.853301 0.446686
0.274381 0.961000 0.593997
0.402825 0.961000 0.608875
0.528050 0.961000 0.627635
0.646241 0.961000 0.649613
0.749362 0.961000 0.672005
0.836040 0.961000 0.691950
0.910494 0.961000 0.707519
0.961000 0.961000 0.717574
0.961000 0.961000 0.712908
0.433499 0.588567 0.635307
0.433297 0.568682 0.634138
0.273081 0.254632 0.626726
0.472617 0.138246 0.624529
0.588484 0.137742 0.624413
0.706742 0.143330 0.631317
0.826981 0.156621 0.646911
0.940677 0.170095 0.662360
0.961000 0.183751 0.677670
0.431223 0.604140 0.632491
0.475153 0.595407 0.631651
0.465576 0.565836 0.630318
0.469237 0.236785 0.623685
0.587108 0.235413 0.623487
0.706520 0.242026 0.631024
0.827251 0.256167 0.646603
0.941375 0.270495 0.662039
0.961000 0.285006 0.677336
0.428956 0.619656 0.629666
0.474658 0.611349 0.628835
0.517611 0.602100 0.627982
0.427962 0.434129 0.624197
0.585900 0.338286 0.622438
0.706479 0.345996 0.630601
0.827713 0.361004 0.646155
0.942277 0.376200 0.661567
0.961000 0.391582 0.676843
0.426754 0.632282 0.623938
0.472565 0.626834 0.625999
0.519343 0.618507 0.625168
0.559940 0.608649 0.624295
0.584909 0.446411 0.621234
0.706668 0.455291 0.630012
0.828418 0.471181 0.645532
0.943435 0.487262 0.660911
0.961000 0.503531 0.676155
0.345972 0.629450 0.611494
0.440898 0.628367 0.612270
0.517521 0.627325 0.615539
0.564218 0.625615 0.621486
0.596847 0.609530 0.620509
0.707166 0.568405 0.629202
0.829458 0.584280 0.644669
0.944953 0.600134 0.659996
0.961000 0.616238 0.675160
0.141849 0.674058 0.625906
0.245721 0.674038 0.625581
0.355625 0.674017 0.625221
0.471344 0.673998 0.624857
0.590212 0.673988 0.624476
0.708370 0.663667 0.589582
0.830402 0.693317 0.643646
0.938236 0.710795 0.661140
0.961000 0.731858 0.681956
0.152828 0.792195 0.639670
0.258255 0.792242 0.639240
0.369507 0.792292 0.638804
0.487748 0.792001 0.638487
0.610398 0.790855 0.639481
0.724514 0.790494 0.642830
0.830040 0.783524 0.582272
0.938341 0.742115 0.511925
0.961000 0.772420 0.598139
0.173232 0.901692 0.653370
0.294037 0.897434 0.654670
0.421683 0.892640 0.658500
0.550725 0.888842 0.665859
0.670703 0.887533 0.676829
0.774157 0.889305 0.690354
0.862158 0.893932 0.705377
0.938860 0.897213 0.679240
0.961000 0.856715 0.562427
0.287203 0.961000 0.680868
0.415031 0.961000 0.690693
0.538856 0.961000 0.703912
0.655087 0.961000 0.720171
0.756122 0.961000 0.737346
0.841022 0.961000 0.753057
0.914271 0.961000 0.765554
0.961000 0.961000 0.774586
0.961000 0.961000 0.752485
0.509535 0.693424 0.750307
0.509097 0.674210 0.749080
0.409003 0.523994 0.745747
0.469913 0.161275 0.738265
0.602012 0.149860 0.737863
0.713197 0.149376 0.737544
0.826999 0.156551 0.745558
0.940741 0.170038 0.760225
0.961000 0.183706 0.774754
0.506872 0.707809 0.747008
0.551273 0.699296 0.746031
0.550851 0.680012 0.744809
0.400865 0.343077 0.738176
0.600624 0.248132 0.736460
0.712304 0.247710 0.736071
0.827300 0.256122 0.744822
0.941471 0.270462 0.759475
0.961000 0.284986 0.773991
0.504214 0.722140 0.743698
0.550476 0.714042 0.742728
0.592465 0.705033 0.741737
0.570647 0.663005 0.740218
0.599412 0.351605 0.734928
0.711593 0.351251 0.734465
0.827795 0.360985 0.743943
0.942406 0.376195 0.758573
0.961000 0.391590 0.773067
0.501565 0.736417 0.740379
0.548065 0.728347 0.739407
0.593858 0.720232 0.738431
0.633104 0.710634 0.737423
0.554295 0.512053 0.733796
0.711112 0.460047 0.732690
0.828534 0.471190 0.742886
0.943598 0.487285 0.757483
0.961000 0.503567 0.771946
0.499079 0.740084 0.726278
0.545710 0.738992 0.732408
0.591715 0.734505 0.735083
0.637077 0.726359 0.734048
0.673240 0.716092 0.733018
0.710942 0.572384 0.730691
0.829610 0.584313 0.741588
0.945150 0.600179 0.756134
0.961000 0.616739 0.769850
0.335186 0.736903 0.722786
0.436887 0.735717 0.722658
0.540240 0.734538 0.722645
0.630180 0.733342 0.723895
0.680329 0.732193 0.729157
0.710664 0.681362 0.728377
0.830169 0.693584 0.739232
0.936768 0.711883 0.751708
0.961000 0.734002 0.765451
0.152687 0.792215 0.736662
0.258170 0.792265 0.736106
0.369484 0.792318 0.735545
0.489090 0.791716 0.734405
0.612419 0.790624 0.732933
0.726242 0.790718 0.732689
0.830499 0.780177 0.694592
0.928273 0.817732 0.759708
0.961000 0.841022 0.782738
0.177808 0.900521 0.747541
0.300425 0.896019 0.746003
0.428790 0.891421 0.745859
0.557590 0.888206 0.748272
0.676618 0.887733 0.753826
0.778845 0.890407 0.762077
0.865673 0.895874 0.772263
0.938339 0.890013 0.717920
0.961000 0.860801 0.674636
0.299965 0.961000 0.760954
0.426984 0.961000 0.765823
0.549284 0.961000 0.773816
0.663493 0.961000 0.784908
0.762438 0.961000 0.797623
0.845596 0.961000 0.810000
0.917701 0.961000 0.820434
0.961000 0.961000 0.829220
0.961000 0.961000 0.784662
0.595410 0.791653 0.851352
0.590450 0.774124 0.852968
0.545174 0.716018 0.855989
0.391919 0.269856 0.847520
0.615482 0.162061 0.845521
0.726059 0.161569 0.845068
0.831620 0.161105 0.844561
0.940821 0.169986 0.853641
0.961000 0.183667 0.867402
0.596208 0.803953 0.846000
0.637585 0.796210 0.844320
0.632358 0.778695 0.845943
0.502636 0.597866 0.849621
0.610859 0.263134 0.843724
0.725155 0.260502 0.843177
0.831160 0.260098 0.842603
0.941580 0.270435 0.852508
0.961000 0.284972 0.866257
0.597683 0.815986 0.840809
0.640529 0.808758 0.839080
0.678357 0.800857 0.837653
0.673113 0.783305 0.839053
0.546255 0.432312 0.842518
0.724440 0.364640 0.841146
0.830895 0.364302 0.840500
0.942546 0.376193 0.851221
0.961000 0.391601 0.864949
0.599838 0.827743 0.835855
0.642388 0.820694 0.834231
0.683536 0.813792 0.832691
0.717485 0.805650 0.831513
0.666206 0.743189 0.839676
0.723963 0.474033 0.838938
0.830874 0.473765 0.838217
0.943771 0.487311 0.849745
0.961000 0.503607 0.863441
0.602242 0.838519 0.830571
0.644870 0.832360 0.829717
0.685614 0.825664 0.828319
0.724931 0.819118 0.827008
0.754804 0.810624 0.826018
0.705077 0.603126 0.836617
0.831186 0.585953 0.835691
0.945357 0.600227 0.848007
0.961000 0.617450 0.859341
0.589394 0.835315 0.813450
0.642528 0.834112 0.816667
0.686327 0.833362 0.820824
0.727092 0.830954 0.823220
0.764494 0.824781 0.822161
0.790216 0.815799 0.821244
0.830476 0.694663 0.829981
0.935393 0.713151 0.836037
0.961000 0.736310 0.842431
0.323956 0.836776 0.824717
0.433473 0.833430 0.821846
0.546729 0.830397 0.818374
0.653430 0.828744 0.815497
0.745748 0.828905 0.814358
0.801769 0.829754 0.817302
0.833000 0.798854 0.817352
0.928730 0.819930 0.829301
0.961000 0.844032 0.844835
0.183091 0.899287 0.836083
0.307224 0.894681 0.831198
0.436089 0.890378 0.826773
0.564503 0.887797 0.824157
0.682517 0.888164 0.824448
0.783512 0.891708 0.827773
0.869204 0.897954 0.833627
0.940947 0.891471 0.803656
0.961000 0.929698 0.862533
0.312549 0.961000 0.834595
0.438598 0.961000 0.834700
0.559270 0.961000 0.837858
0.671417 0.961000 0.844385
0.768282 0.961000 0.853416
0.849739 0.961000 0.863353
0.920904 0.961000 0.872763
0.961000 0.961000 0.881483
0.961000 0.961000 0.823254
0.716365 0.877318 0.916131
0.705581 0.862144 0.918038
0.686208 0.840986 0.922588
0.425481 0.481513 0.953071
0.610341 0.187086 0.947555
0.738861 0.173844 0.946836
0.843807 0.173371 0.946216
0.943684 0.172924 0.945545
0.961000 0.183632 0.955630
0.720487 0.887305 0.911948
0.752441 0.882132 0.910723
0.742330 0.866785 0.911718
0.659407 0.798541 0.931192
0.538540 0.357469 0.946251
0.737945 0.273374 0.944587
0.843337 0.272961 0.943898
0.943610 0.272571 0.943162
0.961000 0.284961 0.954148
0.724915 0.897103 0.908269
0.757937 0.892522 0.907200
0.786385 0.887204 0.906274
0.776984 0.871677 0.906326
0.590963 0.653607 0.946411
0.737227 0.378108 0.942189
0.843069 0.377759 0.941427
0.943741 0.377433 0.940622
0.961000 0.391617 0.952501
0.729597 0.906729 0.905093
0.762144 0.902367 0.904251
0.793354 0.898132 0.903509
0.818292 0.892509 0.902744
0.806384 0.874502 0.901938
0.698086 0.525169 0.939933
0.843052 0.487816 0.938769
0.944129 0.487557 0.937892
0.961000 0.503650 0.950652
0.734475 0.916199 0.902412
0.766553 0.912056 0.901802
0.797303 0.908034 0.901283
0.826809 0.904110 0.900839
0.848294 0.898013 0.900072
0.757171 0.801023 0.910421
0.843389 0.599624 0.935853
0.945571 0.600278 0.935628
0.961000 0.618358 0.943437
0.733565 0.918997 0.894402
0.769925 0.920125 0.898536
0.801408 0.917795 0.899543
0.830485 0.914075 0.899312
0.858420 0.910419 0.899130
0.876549 0.903675 0.898177
0.840982 0.708986 0.921958
0.934139 0.714583 0.914231
0.961000 0.738749 0.913192
0.678598 0.913714 0.883659
0.749861 0.915524 0.885587
0.798685 0.917654 0.889376
0.831483 0.919413 0.894187
0.861832 0.920447 0.898254
0.888352 0.917012 0.898291
0.900927 0.907368 0.896488
0.929406 0.822242 0.892997
0.961000 0.847063 0.901763
0.374829 0.913918 0.896757
0.486280 0.909734 0.891905
0.594920 0.907644 0.888560
0.694334 0.908184 0.887446
0.780731 0.911209 0.888652
0.855630 0.916225 0.891792
0.915691 0.921924 0.896500
0.950855 0.914599 0.899701
0.961000 0.937988 0.919496
0.324854 0.961000 0.902157
0.449798 0.961000 0.897767
0.568767 0.961000 0.896533
0.678828 0.961000 0.899125
0.773633 0.961000 0.905249
0.853439 0.961000 0.913616
0.923975 0.961000 0.922720
0.961000 0.961000 0.931383
0.961000 0.961000 0.899140
