anvil/run/anvil_run.cube
TITLE "ANVIL forge grade"
LUT_3D_SIZE 33
DOMAIN_MIN 0.0 0.0 0.0
DOMAIN_MAX 1.0 1.0 1.0
0.096494 0.080081 0.052439
0.123511 0.083186 0.056042
0.150967 0.086298 0.059654
0.178862 0.089418 0.063276
0.207197 0.092546 0.066906
0.235973 0.095682 0.070545
0.265191 0.098826 0.074192
0.294852 0.101978 0.077848
0.324957 0.105138 0.081513
0.355507 0.108306 0.085186
0.386503 0.111483 0.088867
0.417946 0.114668 0.092556
0.449837 0.117861 0.096254
0.482177 0.121063 0.099960
0.514966 0.124273 0.103673
0.547952 0.127493 0.107392
0.580561 0.130725 0.111113
0.612771 0.133969 0.114836
0.644581 0.137224 0.118561
0.675989 0.140491 0.122288
0.706995 0.143770 0.126017
0.737598 0.147060 0.129748
0.767797 0.150362 0.133481
0.797590 0.153676 0.137217
0.826978 0.157001 0.140956
0.855959 0.160337 0.144697
0.884531 0.163686 0.148440
0.912695 0.167045 0.152187
0.940449 0.170416 0.155936
0.961000 0.173799 0.159689
0.961000 0.177192 0.163444
0.961000 0.180597 0.167203
0.961000 0.184014 0.170965
0.098572 0.106354 0.056391
0.122621 0.106352 0.056690
0.150692 0.097178 0.035936
0.178116 0.111121 0.061555
0.206421 0.115865 0.067551
0.235238 0.119053 0.071189
0.264498 0.122248 0.074835
0.294201 0.125452 0.078490
0.324350 0.128663 0.082153
0.354945 0.131883 0.085825
0.385986 0.135112 0.089504
0.417476 0.138349 0.093192
0.449415 0.141594 0.096888
0.481803 0.144848 0.100592
0.514643 0.148111 0.104303
0.547669 0.151383 0.108020
0.580315 0.154667 0.111739
0.612561 0.157963 0.115460
0.644405 0.161271 0.119183
0.675847 0.164591 0.122908
0.706886 0.167922 0.126635
0.737520 0.171265 0.130365
0.767750 0.174619 0.134096
0.797573 0.177986 0.137830
0.826990 0.181364 0.141567
0.855998 0.184753 0.145306
0.884598 0.188154 0.149048
0.912788 0.191566 0.152793
0.940567 0.194990 0.156541
0.961000 0.198426 0.160292
0.961000 0.201872 0.164046
0.961000 0.205330 0.167803
0.961000 0.208800 0.171564
0.100665 0.133042 0.060345
0.124695 0.132945 0.060538
0.149265 0.133055 0.060945
0.177868 0.123355 0.028187
0.206786 0.114419 0.019543
0.235520 0.119522 0.033754
0.263939 0.142924 0.070901
0.293556 0.149249 0.079127
0.323749 0.152513 0.082789
0.354388 0.155785 0.086459
0.385476 0.159065 0.090137
0.417013 0.162354 0.093823
0.449000 0.165652 0.097517
0.481437 0.168958 0.101219
0.514327 0.172273 0.104928
0.547394 0.175598 0.108643
0.580076 0.178935 0.112360
0.612358 0.182284 0.116079
0.644237 0.185644 0.119800
0.675713 0.189017 0.123523
0.706785 0.192401 0.127248
0.737451 0.195797 0.130975
0.767712 0.199204 0.134705
0.797565 0.202623 0.138437
0.827011 0.206054 0.142172
0.856048 0.209497 0.145909
0.884674 0.212951 0.149649
0.912890 0.216416 0.153393
0.940694 0.219893 0.157139
0.961000 0.223381 0.160888
0.961000 0.226881 0.164640
0.961000 0.230392 0.168396
0.961000 0.233915 0.172155
0.102775 0.160145 0.064299
0.126880 0.160053 0.064489
0.151327 0.159960 0.064680
0.176433 0.160192 0.065203
0.205567 0.149926 0.020447
0.234961 0.140847 0.011833
0.264794 0.131804 0.003261
0.294759 0.129915 0.006599
0.324134 0.152793 0.046265
0.354019 0.175500 0.080469
0.384973 0.183344 0.090764
0.416557 0.186685 0.094449
0.448592 0.190035 0.098140
0.481079 0.193394 0.101840
0.514020 0.196762 0.105547
0.547127 0.200140 0.109260
0.579846 0.203530 0.112975
0.612164 0.206931 0.116691
0.644078 0.210345 0.120410
0.675588 0.213770 0.124130
0.706693 0.217208 0.127853
0.737392 0.220656 0.131579
0.767684 0.224117 0.135306
0.797567 0.227589 0.139036
0.827042 0.231073 0.142769
0.856107 0.234569 0.146505
0.884761 0.238076 0.150243
0.913003 0.241595 0.153984
0.940833 0.245125 0.157729
0.961000 0.248667 0.161476
0.961000 0.252220 0.165227
0.961000 0.255785 0.168981
0.961000 0.259361 0.172738
0.104903 0.187665 0.068254
0.129084 0.187577 0.068440
0.153608 0.187489 0.068627
0.178476 0.187399 0.068816
0.204129 0.187764 0.069462
0.233763 0.177518 0.015336
0.263668 0.167670 0.004130
0.293981 0.158483 0.000000
0.324737 0.149332 0.000000
0.355795 0.143541 0.000000
0.386357 0.160662 0.016414
0.417046 0.187014 0.058410
0.448414 0.208860 0.090248
0.480730 0.218157 0.102455
0.513721 0.221578 0.106160
0.546869 0.225009 0.109871
0.579626 0.228452 0.113583
0.611979 0.231907 0.117297
0.643929 0.235373 0.121013
0.675473 0.238852 0.124731
0.706611 0.242343 0.128452
0.737342 0.245845 0.132175
0.767666 0.249359 0.135900
0.797580 0.252885 0.139628
0.827084 0.256422 0.143359
0.856178 0.259971 0.147092
0.884859 0.263532 0.150828
0.913128 0.267104 0.154568
0.940983 0.270688 0.158310
0.961000 0.274283 0.162055
0.961000 0.277890 0.165804
0.961000 0.281509 0.169556
0.961000 0.285138 0.173312
0.107049 0.215603 0.072209
0.131306 0.215519 0.072391
0.155908 0.215435 0.072574
0.180853 0.215351 0.072759
0.206144 0.215265 0.072945
0.232360 0.215775 0.073721
0.262393 0.207429 0.020178
0.292911 0.194888 0.000000
0.323708 0.185557 0.000000
0.354949 0.176262 0.000000
0.386634 0.167003 0.000000
0.418710 0.159099 0.000000
0.450462 0.170446 0.000000
0.482181 0.195066 0.029506
0.514330 0.221797 0.070100
0.546872 0.243014 0.100226
0.579415 0.253682 0.114156
0.611805 0.257210 0.117895
0.643790 0.260731 0.121609
0.675369 0.264263 0.125325
0.706541 0.267807 0.129043
0.737304 0.271363 0.132763
0.767659 0.274930 0.136486
0.797604 0.278510 0.140212
0.827138 0.282101 0.143940
0.856260 0.285704 0.147671
0.884969 0.289318 0.151405
0.913265 0.292944 0.155142
0.941145 0.296582 0.158882
0.961000 0.300231 0.162626
0.961000 0.303892 0.166373
0.961000 0.307564 0.170123
0.961000 0.311248 0.173876
0.109216 0.243959 0.076162
0.133549 0.243881 0.076340
0.158228 0.243801 0.076520
0.183251 0.243721 0.076700
0.208621 0.243641 0.076882
0.234338 0.243559 0.077065
0.261130 0.244225 0.077979
0.291552 0.237939 0.028753
0.322696 0.222502 0.000000
0.353979 0.213027 0.000000
0.385708 0.203588 0.000000
0.417883 0.194184 0.000000
0.450505 0.184817 0.000000
0.483561 0.175840 0.000000
0.516468 0.182241 0.000000
0.548962 0.203577 0.000359
0.580892 0.230788 0.042824
0.612500 0.257213 0.081543
0.643936 0.277989 0.110360
0.675286 0.289683 0.125471
0.706481 0.293601 0.129625
0.737278 0.297211 0.133343
0.767664 0.300832 0.137064
0.797640 0.304465 0.140787
0.827204 0.308111 0.144512
0.856355 0.311767 0.148241
0.885092 0.315436 0.151973
0.913414 0.319116 0.155708
0.941321 0.322808 0.159445
0.961000 0.326511 0.163187
0.961000 0.330226 0.166931
0.961000 0.333952 0.170679
0.961000 0.337690 0.174431
0.111403 0.272736 0.080113
0.135814 0.272662 0.080287
0.160569 0.272587 0.080463
0.185671 0.272512 0.080639
0.211121 0.272436 0.080817
0.236917 0.272360 0.080996
0.263062 0.272283 0.081175
0.290445 0.273117 0.082234
0.321273 0.268580 0.038163
0.353030 0.250513 0.000000
0.384801 0.240893 0.000000
0.417020 0.231309 0.000000
0.449687 0.221762 0.000000
0.482804 0.212250 0.000000
0.516370 0.202774 0.000000
0.550052 0.193353 0.000000
0.582888 0.195659 0.000000
0.614758 0.213445 0.000000
0.645974 0.239255 0.013895
0.676756 0.267363 0.055902
0.707253 0.293341 0.092860
0.737553 0.313800 0.120635
0.767707 0.326230 0.136499
0.797689 0.330753 0.141352
0.827283 0.334452 0.145076
0.856463 0.338163 0.148802
0.885228 0.341886 0.152531
0.913578 0.345620 0.156263
0.941510 0.349366 0.159998
0.961000 0.353124 0.163737
0.961000 0.356893 0.167479
0.961000 0.360674 0.171225
0.961000 0.364466 0.174974
0.113613 0.301933 0.084062
0.138100 0.301864 0.084232
0.162934 0.301794 0.084403
0.188115 0.301724 0.084575
0.213643 0.301653 0.084748
0.239520 0.301582 0.084923
0.265746 0.301510 0.085098
0.292323 0.301438 0.085274
0.320312 0.302453 0.086486
0.351565 0.299319 0.047408
0.383873 0.279914 0.000000
0.416179 0.269156 0.000000
0.448891 0.259428 0.000000
0.482053 0.249735 0.000000
0.515666 0.240079 0.000000
0.549385 0.230460 0.000000
0.582696 0.220880 0.000000
0.615593 0.211340 0.000000
0.647766 0.210337 0.000000
0.678985 0.224742 0.000000
0.709504 0.248391 0.000000
0.739517 0.276358 0.027810
0.769162 0.304692 0.068733
0.798528 0.330226 0.104139
0.827672 0.350449 0.131049
0.856625 0.363437 0.147401
0.885379 0.368668 0.153078
0.913755 0.372457 0.156808
0.941714 0.376258 0.160541
0.961000 0.380070 0.164277
0.961000 0.383894 0.168017
0.961000 0.387729 0.171760
0.961000 0.391577 0.175507
0.115846 0.331552 0.088006
0.140411 0.331488 0.088172
0.165322 0.331423 0.088339
0.190582 0.331358 0.088507
0.216190 0.331293 0.088676
0.242148 0.331226 0.088846
0.268455 0.331160 0.089017
0.295114 0.331092 0.089188
0.322124 0.331025 0.089361
0.350735 0.332233 0.090731
0.382432 0.330214 0.056154
0.415222 0.310986 0.000000
0.448117 0.297817 0.000000
0.481325 0.287943 0.000000
0.514985 0.278105 0.000000
0.548739 0.268305 0.000000
0.582083 0.258544 0.000000
0.615012 0.248822 0.000000
0.647525 0.239140 0.000000
0.679623 0.229497 0.000000
0.711089 0.225990 0.000000
0.741632 0.237322 0.000000
0.771453 0.258566 0.000000
0.800719 0.285457 0.000000
0.829558 0.314490 0.041707
0.858057 0.342767 0.081384
0.886275 0.367899 0.115434
0.914245 0.387943 0.141601
0.941986 0.401366 0.158264
0.961000 0.407351 0.164806
0.961000 0.411230 0.168543
0.961000 0.415120 0.172284
0.961000 0.419022 0.176028
0.118104 0.361595 0.091947
0.142746 0.361536 0.092108
0.167736 0.361476 0.092271
0.193075 0.361416 0.092434
0.218763 0.361355 0.092599
0.244801 0.361294 0.092764
0.271191 0.361233 0.092930
0.297932 0.361171 0.093097
0.325025 0.361109 0.093265
0.352472 0.361046 0.093433
0.381720 0.362461 0.094970
0.413876 0.361329 0.064322
0.447120 0.342963 0.000000
0.480623 0.326876 0.000000
0.514329 0.316857 0.000000
0.548118 0.306874 0.000000
0.581494 0.296932 0.000000
0.614455 0.287028 0.000000
0.646999 0.277164 0.000000
0.679125 0.267339 0.000000
0.710834 0.257553 0.000000
0.742123 0.247808 0.000000
0.772847 0.242410 0.000000
0.802690 0.251001 0.000000
0.831801 0.269838 0.000000
0.860327 0.295194 0.000000
0.888383 0.323959 0.013761
0.916052 0.353505 0.055488
0.943392 0.381604 0.093921
0.961000 0.406383 0.126779
0.961000 0.426286 0.152289
0.961000 0.440058 0.169140
0.961000 0.446804 0.176536
0.120388 0.392061 0.095881
0.145107 0.392007 0.096039
0.170176 0.391953 0.096197
0.195594 0.391898 0.096356
0.221362 0.391843 0.096516
0.247482 0.391787 0.096676
0.273953 0.391731 0.096838
0.300777 0.391675 0.097000
0.327954 0.391618 0.097163
0.355486 0.391561 0.097326
0.383371 0.391504 0.097490
0.413273 0.393139 0.099201
0.445901 0.392719 0.071930
0.479590 0.375490 0.000000
0.513699 0.356387 0.000000
0.547524 0.346170 0.000000
0.580932 0.336044 0.000000
0.613923 0.325958 0.000000
0.646497 0.315911 0.000000
0.678653 0.305904 0.000000
0.710389 0.295936 0.000000
0.741706 0.286007 0.000000
0.772602 0.276119 0.000000
0.803076 0.266270 0.000000
0.833030 0.259445 0.000000
0.862148 0.265610 0.000000
0.890535 0.282148 0.000000
0.918317 0.305773 0.000000
0.945598 0.333713 0.000000
0.961000 0.363590 0.028258
0.961000 0.393350 0.069147
0.961000 0.421224 0.106395
0.961000 0.445693 0.138195
0.122699 0.422953 0.099810
0.147496 0.422904 0.099963
0.172643 0.422855 0.100116
0.198141 0.422806 0.100271
0.223990 0.422756 0.100426
0.250191 0.422706 0.100582
0.276745 0.422656 0.100739
0.303652 0.422605 0.100896
0.330913 0.422554 0.101054
0.358529 0.422502 0.101212
0.386500 0.422451 0.101371
0.414828 0.422399 0.101530
0.445401 0.424267 0.103422
0.478510 0.424426 0.079027
0.512644 0.408409 0.000000
0.546919 0.387307 0.000000
0.580399 0.375885 0.000000
0.613421 0.365616 0.000000
0.646024 0.355386 0.000000
0.678208 0.345195 0.000000
0.709972 0.335044 0.000000
0.741315 0.324932 0.000000
0.772237 0.314860 0.000000
0.802735 0.304828 0.000000
0.832810 0.294835 0.000000
0.862461 0.284882 0.000000
0.891624 0.276980 0.000000
0.919996 0.281006 0.000000
0.947641 0.295400 0.000000
0.961000 0.317243 0.000000
0.961000 0.344048 0.000000
0.961000 0.373663 0.000745
0.961000 0.404203 0.042750
0.125038 0.454271 0.103732
0.149914 0.454228 0.103880
0.175140 0.454184 0.104029
0.200717 0.454141 0.104179
0.226647 0.454096 0.104329
0.252930 0.454052 0.104480
0.279566 0.454007 0.104632
0.306556 0.453962 0.104784
0.333902 0.453916 0.104937
0.361603 0.453871 0.105090
0.389660 0.453825 0.105243
0.418075 0.453779 0.105397
0.446848 0.453733 0.105551
0.478108 0.455849 0.107632
0.511709 0.456483 0.085673
0.545881 0.441653 0.005117
0.579790 0.419555 0.000000
0.612950 0.406002 0.000000
0.645582 0.395589 0.000000
0.677794 0.385214 0.000000
0.709585 0.374879 0.000000
0.740954 0.364584 0.000000
0.771900 0.354328 0.000000
0.802423 0.344111 0.000000
0.832521 0.333934 0.000000
0.862194 0.323797 0.000000
0.891440 0.313700 0.000000
0.920260 0.303643 0.000000
0.948613 0.294932 0.000000
0.961000 0.297070 0.000000
0.961000 0.309491 0.000000
0.961000 0.329579 0.000000
0.961000 0.355093 0.000000
0.127407 0.486016 0.107646
0.152361 0.485979 0.107789
0.177666 0.485941 0.107933
0.203324 0.485903 0.108078
0.229335 0.485864 0.108224
0.255699 0.485825 0.108370
0.282418 0.485786 0.108516
0.309492 0.485747 0.108663
0.336922 0.485707 0.108811
0.364709 0.485668 0.108959
0.392853 0.485628 0.109107
0.421355 0.485588 0.109255
0.450215 0.485548 0.109404
0.479435 0.485507 0.109553
0.511402 0.487886 0.111829
0.545076 0.488914 0.091922
0.578812 0.475202 0.012867
0.612327 0.452739 0.000000
0.645174 0.436522 0.000000
0.677413 0.425963 0.000000
0.709231 0.415444 0.000000
0.740625 0.404964 0.000000
0.771596 0.394524 0.000000
0.802142 0.384123 0.000000
0.832262 0.373762 0.000000
0.861957 0.363440 0.000000
0.891223 0.353158 0.000000
0.920063 0.342916 0.000000
0.948473 0.332714 0.000000
0.961000 0.322552 0.000000
0.961000 0.313235 0.000000
0.961000 0.313708 0.000000
0.961000 0.324326 0.000000
0.129808 0.518145 0.111550
0.154840 0.518113 0.111689
0.180225 0.518080 0.111828
0.205964 0.518048 0.111968
0.232056 0.518014 0.112108
0.258502 0.517981 0.112249
0.285304 0.517948 0.112391
0.312463 0.517914 0.112533
0.339977 0.517880 0.112675
0.367849 0.517846 0.112817
0.396080 0.517811 0.112960
0.424669 0.517777 0.113103
0.453618 0.517743 0.113246
0.482928 0.517709 0.113389
0.512597 0.517674 0.113531
0.544849 0.520304 0.116008
0.578135 0.521648 0.097820
0.611434 0.509050 0.020523
0.644536 0.486627 0.000000
0.677065 0.467533 0.000000
0.708912 0.456741 0.000000
0.740331 0.446076 0.000000
0.771326 0.435451 0.000000
0.801895 0.424865 0.000000
0.832037 0.414318 0.000000
0.861752 0.403811 0.000000
0.891039 0.393344 0.000000
0.919897 0.382917 0.000000
0.948325 0.372530 0.000000
0.961000 0.362182 0.000000
0.961000 0.351875 0.000000
0.961000 0.341608 0.000000
0.961000 0.331841 0.000000
0.132256 0.550079 0.115433
0.157367 0.550052 0.115567
0.182832 0.550024 0.115702
0.208651 0.549996 0.115837
0.234825 0.549967 0.115972
0.261354 0.549939 0.116108
0.288239 0.549910 0.116245
0.315481 0.549881 0.116381
0.343081 0.549852 0.116518
0.371039 0.549823 0.116655
0.399356 0.549794 0.116792
0.428033 0.549765 0.116929
0.457071 0.549736 0.117067
0.486469 0.549707 0.117204
0.516218 0.549678 0.117341
0.545869 0.549650 0.117476
0.577996 0.552497 0.120158
0.610894 0.554076 0.103404
0.643755 0.542695 0.027976
0.676423 0.520990 0.000000
0.708601 0.499794 0.000000
0.740074 0.487921 0.000000
0.771092 0.477110 0.000000
0.801684 0.466338 0.000000
0.831847 0.455606 0.000000
0.861583 0.444914 0.000000
0.890889 0.434261 0.000000
0.919765 0.423648 0.000000
0.948211 0.413074 0.000000
0.961000 0.402541 0.000000
0.961000 0.392048 0.000000
0.961000 0.381595 0.000000
0.961000 0.371182 0.000000
0.134756 0.581642 0.119294
0.159946 0.581620 0.119423
0.185491 0.581596 0.119553
0.211390 0.581573 0.119683
0.237645 0.581549 0.119814
0.264257 0.581526 0.119945
0.291225 0.581502 0.120076
0.318552 0.581478 0.120207
0.346236 0.581454 0.120339
0.374280 0.581430 0.120470
0.402684 0.581406 0.120602
0.431449 0.581382 0.120734
0.460575 0.581357 0.120865
0.490063 0.581333 0.120997
0.519876 0.581310 0.121128
0.549518 0.581287 0.121257
0.578838 0.581266 0.121382
0.610841 0.584333 0.124277
0.643350 0.586094 0.108711
0.675777 0.575788 0.035167
0.708002 0.555058 0.000000
0.739790 0.532933 0.000000
0.770900 0.519433 0.000000
0.801512 0.508543 0.000000
0.831696 0.497628 0.000000
0.861452 0.486749 0.000000
0.890777 0.475910 0.000000
0.919671 0.465110 0.000000
0.948133 0.454351 0.000000
0.961000 0.443631 0.000000
0.961000 0.432951 0.000000
0.961000 0.422311 0.000000
0.961000 0.411712 0.000000
0.137305 0.612834 0.123133
0.162575 0.612816 0.123257
0.188199 0.612797 0.123382
0.214180 0.612779 0.123507
0.240516 0.612760 0.123633
0.267210 0.612741 0.123759
0.294262 0.612722 0.123885
0.321673 0.612702 0.124011
0.349442 0.612683 0.124137
0.377572 0.612664 0.124264
0.406063 0.612645 0.124390
0.434916 0.612625 0.124516
0.464130 0.612606 0.124642
0.493708 0.612587 0.124768
0.523570 0.612569 0.124893
0.553203 0.612551 0.125016
0.582514 0.612536 0.125135
0.611501 0.612521 0.125252
0.643378 0.615809 0.128368
0.675497 0.617712 0.113775
0.707492 0.608350 0.042066
0.739272 0.588637 0.000000
0.770649 0.566133 0.000000
0.801397 0.550704 0.000000
0.831596 0.539931 0.000000
0.861365 0.529107 0.000000
0.890706 0.518232 0.000000
0.919616 0.507306 0.000000
0.948094 0.496361 0.000000
0.961000 0.485454 0.000000
0.961000 0.474587 0.000000
0.961000 0.463760 0.000000
0.961000 0.452973 0.000000
0.139904 0.643653 0.126950
0.165252 0.643639 0.127070
0.190957 0.643625 0.127190
0.217018 0.643611 0.127310
0.243436 0.643597 0.127431
0.270213 0.643582 0.127552
0.297348 0.643568 0.127673
0.324843 0.643553 0.127794
0.352698 0.643539 0.127915
0.380914 0.643524 0.128036
0.409492 0.643510 0.128157
0.438432 0.643496 0.128277
0.467736 0.643482 0.128398
0.497403 0.643467 0.128518
0.527301 0.643454 0.128637
0.556924 0.643442 0.128754
0.586224 0.643431 0.128868
0.615200 0.643422 0.128979
0.643851 0.643414 0.129087
0.675602 0.646925 0.132432
0.707328 0.648934 0.118622
0.738894 0.640402 0.048665
0.770228 0.621703 0.000000
0.801180 0.599192 0.000000
0.831561 0.581662 0.000000
0.861345 0.570953 0.000000
0.890697 0.560246 0.000000
0.919617 0.549488 0.000000
0.948106 0.538679 0.000000
0.961000 0.527818 0.000000
0.961000 0.516906 0.000000
0.961000 0.505942 0.000000
0.961000 0.494967 0.000000
0.142550 0.674098 0.130747
0.167978 0.674089 0.130862
0.193762 0.674079 0.130977
0.219904 0.674069 0.131093
0.246404 0.674060 0.131209
0.273264 0.674050 0.131325
0.300482 0.674040 0.131440
0.328062 0.674030 0.131556
0.356002 0.674020 0.131672
0.384304 0.674010 0.131788
0.412969 0.674001 0.131903
0.441997 0.673991 0.132019
0.471389 0.673982 0.132134
0.501146 0.673973 0.132248
0.531065 0.673964 0.132362
0.560679 0.673957 0.132472
0.589969 0.673951 0.132580
0.618933 0.673947 0.132685
0.647571 0.673945 0.132787
0.675883 0.673943 0.132887
0.707506 0.677677 0.136469
0.738839 0.679766 0.123277
0.769976 0.671962 0.054962
0.800864 0.654248 0.000000
0.831381 0.631984 0.000000
0.861375 0.612858 0.000000
0.890755 0.601608 0.000000
0.919686 0.591019 0.000000
0.948184 0.580378 0.000000
0.961000 0.569686 0.000000
0.961000 0.558942 0.000000
0.961000 0.548147 0.000000
0.961000 0.537300 0.000000
0.145243 0.704168 0.134523
0.170750 0.704163 0.134634
0.196615 0.704158 0.134745
0.222838 0.704153 0.134856
0.249420 0.704147 0.134967
0.276361 0.704142 0.135078
0.303664 0.704136 0.135189
0.331328 0.704131 0.135299
0.359353 0.704126 0.135410
0.387742 0.704121 0.135520
0.416494 0.704116 0.135631
0.445610 0.704111 0.135741
0.475091 0.704106 0.135850
0.504937 0.704102 0.135959
0.534863 0.704098 0.136067
0.564467 0.704096 0.136171
0.593746 0.704095 0.136273
0.622698 0.704096 0.136373
0.651324 0.704098 0.136469
0.679623 0.704102 0.136563
0.707769 0.704285 0.136824
0.739085 0.708065 0.140482
0.770022 0.710209 0.127758
0.800732 0.703044 0.060963
0.831173 0.686270 0.000000
0.861250 0.664425 0.000000
0.890836 0.644243 0.000000
0.919819 0.631896 0.000000
0.948327 0.621425 0.000000
0.961000 0.610902 0.000000
0.961000 0.600327 0.000000
0.961000 0.589701 0.000000
0.961000 0.579023 0.000000
0.147982 0.733863 0.138281
0.173568 0.733862 0.138388
0.199513 0.733861 0.138494
0.225817 0.733860 0.138600
0.252481 0.733859 0.138706
0.279505 0.733858 0.138812
0.306891 0.733857 0.138918
0.334640 0.733856 0.139024
0.362751 0.733855 0.139129
0.391225 0.733854 0.139235
0.420064 0.733854 0.139339
0.449269 0.733854 0.139444
0.478839 0.733854 0.139548
0.508774 0.733854 0.139651
0.538693 0.733855 0.139753
0.568287 0.733858 0.139852
0.597554 0.733862 0.139948
0.626495 0.733868 0.140042
0.655108 0.733875 0.140133
0.683393 0.733883 0.140222
0.711348 0.733892 0.140308
0.739410 0.734344 0.140814
0.770334 0.738086 0.144480
0.800781 0.740224 0.132770
0.831102 0.733647 0.066983
0.861150 0.717776 0.000000
0.890780 0.696461 0.000000
0.919946 0.675631 0.000000
0.948532 0.661817 0.000000
0.961000 0.651463 0.000000
0.961000 0.641058 0.000000
0.961000 0.630602 0.000000
0.961000 0.620093 0.000000
0.150765 0.763180 0.142021
0.176430 0.763183 0.142123
0.202455 0.763186 0.142224
0.228840 0.763189 0.142326
0.255586 0.763193 0.142427
0.282694 0.763196 0.142528
0.310164 0.763199 0.142629
0.337997 0.763203 0.142730
0.366193 0.763206 0.142831
0.394754 0.763210 0.142931
0.423681 0.763214 0.143030
0.452973 0.763219 0.143130
0.482632 0.763223 0.143228
0.512644 0.763228 0.143326
0.542554 0.763234 0.143422
0.572137 0.763242 0.143515
0.601393 0.763251 0.143606
0.630322 0.763261 0.143694
0.658922 0.763272 0.143779
0.687194 0.763283 0.143878
0.715149 0.763241 0.144475
0.742722 0.763144 0.145769
0.770513 0.763703 0.148676
0.800480 0.767121 0.156831
0.829670 0.769115 0.149461
0.859083 0.763186 0.084806
0.889344 0.748507 0.000000
0.919691 0.728026 0.000000
0.948702 0.706886 0.000000
0.961000 0.691374 0.000000
0.961000 0.681134 0.000000
0.961000 0.670847 0.000000
0.961000 0.660509 0.000000
0.153591 0.792119 0.145744
0.179336 0.792127 0.145841
0.205441 0.792134 0.145938
0.231908 0.792141 0.146034
0.258736 0.792148 0.146131
0.285926 0.792156 0.146227
0.313480 0.792163 0.146324
0.341397 0.792171 0.146419
0.369679 0.792179 0.146515
0.398327 0.792188 0.146610
0.427341 0.792196 0.146704
0.456721 0.792205 0.146798
0.486469 0.792214 0.146891
0.516545 0.792223 0.146984
0.546444 0.792234 0.147074
0.576017 0.792246 0.147162
0.605318 0.792219 0.147481
0.634414 0.792081 0.148549
0.663201 0.791864 0.150348
0.691584 0.791600 0.152839
0.719479 0.791318 0.155983
0.746813 0.791043 0.159739
0.773526 0.790798 0.164068
0.800477 0.791498 0.170706
0.828986 0.794750 0.183239
0.856498 0.796747 0.179732
0.884213 0.791444 0.118025
0.913383 0.777945 0.026266
0.944027 0.758616 0.000000
0.961000 0.737753 0.000000
0.961000 0.720898 0.000000
0.961000 0.710441 0.000000
0.961000 0.700290 0.000000
0.156460 0.820680 0.149450
0.182284 0.820691 0.149542
0.208470 0.820702 0.149634
0.235018 0.820713 0.149727
0.261928 0.820725 0.149819
0.289201 0.820736 0.149910
0.316839 0.820748 0.150001
0.344841 0.820760 0.150092
0.373209 0.820772 0.150183
0.401943 0.820785 0.150273
0.431044 0.820798 0.150362
0.460513 0.820811 0.150451
0.490355 0.820822 0.150549
0.520706 0.820713 0.151187
0.551061 0.820452 0.152634
0.581198 0.820082 0.154848
0.611004 0.819641 0.157787
0.640380 0.819162 0.161410
0.669239 0.818675 0.165674
0.697507 0.818205 0.170536
0.725124 0.817775 0.175955
0.752035 0.817406 0.181886
0.778201 0.817112 0.188289
0.803589 0.816908 0.195121
0.829304 0.817910 0.205067
0.856083 0.821179 0.220965
0.881690 0.823291 0.220631
0.907223 0.818572 0.163043
0.934332 0.806170 0.072693
0.961000 0.788047 0.000000
0.961000 0.767813 0.000000
0.961000 0.750280 0.000000
0.961000 0.739334 0.000000
0.159370 0.848860 0.153139
0.185274 0.848875 0.153228
0.211540 0.848890 0.153315
0.238169 0.848905 0.153403
0.265161 0.848921 0.153490
0.292518 0.848936 0.153577
0.320239 0.848952 0.153664
0.348326 0.848968 0.153750
0.376780 0.848985 0.153835
0.405675 0.848967 0.154037
0.435335 0.848762 0.154935
0.465702 0.848377 0.156623
0.496664 0.847844 0.159115
0.527963 0.847199 0.162405
0.558956 0.846490 0.166419
0.589490 0.845754 0.171105
0.619475 0.845020 0.176418
0.648837 0.844316 0.182313
0.677510 0.843664 0.188745
0.705443 0.843086 0.195667
0.732593 0.842597 0.203036
0.758928 0.842212 0.210805
0.784423 0.841942 0.218933
0.809064 0.841796 0.227375
0.832840 0.841780 0.236090
0.857101 0.843209 0.248735
0.882042 0.846639 0.266879
